img/stat-img3.svg

<svg width="309" height="130" viewBox="0 0 309 130" fill="none" xmlns="http://www.w3.org/2000/svg">
<path d="M151.5 243C217.498 243 271 188.603 271 121.5C271 54.3974 217.498 0 151.5 0C85.502 0 32 54.3974 32 121.5C32 188.603 85.502 243 151.5 243Z" fill="url(#paint0_linear_405_14252)"/>
<path d="M141.219 77.9834L97.123 130.591L98.0594 131.376L142.156 78.7682L141.219 77.9834Z" fill="#120283"/>
<path d="M16.5985 107.14L16.231 108.305L97.2641 133.87L97.6317 132.705L16.5985 107.14Z" fill="#120283"/>
<path d="M17.6109 122.275C25.6233 121.619 31.5868 114.592 30.9309 106.579C30.275 98.5671 23.248 92.6036 15.2357 93.2595C7.22331 93.9154 1.25975 100.942 1.91567 108.955C2.57159 116.967 9.59861 122.931 17.6109 122.275Z" fill="#353A85"/>
<path d="M66.9923 47.2769L65.8501 47.7106L97.1038 130.03L98.246 129.596L66.9923 47.2769Z" fill="#120283"/>
<path d="M68.12 47.0333L67.6499 48.161L141.455 78.9283L141.925 77.8007L68.12 47.0333Z" fill="#120283"/>
<path d="M214.132 41.1716L139.872 77.7285L140.411 78.8246L214.672 42.2677L214.132 41.1716Z" fill="#120283"/>
<path d="M142.01 77.8468L141.371 78.8876L219.437 126.877L220.077 125.836L142.01 77.8468Z" fill="#120283"/>
<path d="M290.618 68.6582L219.375 125.898L220.14 126.851L291.383 69.6106L290.618 68.6582Z" fill="#120283"/>
<path d="M150.996 99.7704C164.806 96.2991 173.187 82.2903 169.715 68.4808C166.244 54.6713 152.235 46.2905 138.426 49.7617C124.616 53.233 116.235 67.2418 119.707 81.0514C123.178 94.8609 137.187 103.242 150.996 99.7704Z" fill="#353A85"/>
<path d="M292.217 87.1061C302.188 86.4316 309.724 77.8015 309.05 67.8303C308.375 57.8591 299.745 50.3227 289.774 50.9972C279.803 51.6717 272.267 60.3018 272.941 70.273C273.616 80.2442 282.246 87.7806 292.217 87.1061Z" fill="#353A85"/>
<path d="M87.7729 49.9256C88.8636 39.2062 81.058 29.6322 70.3386 28.5415C59.6192 27.4507 50.0452 35.2563 48.9544 45.9758C47.8637 56.6952 55.6693 66.2692 66.3887 67.3599C77.1081 68.4506 86.6821 60.6451 87.7729 49.9256Z" fill="#120283"/>
<path d="M226.51 49.3376C230.716 42.6526 228.707 33.8232 222.022 29.6167C215.337 25.4101 206.508 27.4193 202.301 34.1044C198.095 40.7894 200.104 49.6188 206.789 53.8254C213.474 58.0319 222.303 56.0227 226.51 49.3376Z" fill="#BF0830"/>
<path d="M245.693 144.681C260.677 129.696 260.677 105.402 245.693 90.4177C230.709 75.4334 206.415 75.4334 191.43 90.4177C176.446 105.402 176.446 129.696 191.43 144.681C206.415 159.665 230.709 159.665 245.693 144.681Z" fill="#120283"/>
<path d="M98.1116 145.212C109.985 143.683 118.371 132.817 116.842 120.944C115.312 109.07 104.447 100.684 92.5728 102.213C80.6989 103.743 72.3131 114.609 73.8427 126.482C75.3722 138.356 86.2377 146.742 98.1116 145.212Z" fill="#BF0830"/>
<path d="M15.666 120.631C17.3602 120.741 19.0594 120.516 20.6664 119.968C22.2734 119.421 23.7567 118.562 25.0315 117.441C24.7118 116.228 24.3166 115.036 23.8482 113.873C23.0892 112 21.6748 110.466 19.8688 109.559L19.9142 109.496C20.6187 108.266 20.96 106.862 20.8985 105.447C20.8985 104.124 20.6472 102.759 19.8513 101.645C19.4279 101.012 18.837 100.508 18.1444 100.19C17.4517 99.8722 16.6845 99.7528 15.928 99.8451C15.1716 99.9373 14.4555 100.238 13.8595 100.713C13.2636 101.188 12.811 101.818 12.5523 102.535C11.9938 103.879 12.0531 105.328 12.1614 106.759C12.2324 107.778 12.5192 108.77 13.0026 109.67C11.8672 110.405 10.8768 111.342 10.0809 112.435C9.15238 113.629 9.19078 113.685 8.60783 115.095C8.3216 115.793 8.03885 116.491 7.79102 117.29C9.95927 119.268 12.7373 120.446 15.666 120.631Z" fill="white"/>
<path d="M67.625 64.7416C69.864 64.8887 72.11 64.5923 74.2341 63.8693C76.3583 63.1463 78.3187 62.0109 80.003 60.5283C79.5834 58.9237 79.0622 57.3474 78.4426 55.8089C77.439 53.3334 75.5693 51.3074 73.1821 50.1086C73.1821 50.0772 73.224 50.0527 73.2415 50.0248C74.2503 48.3982 74.5575 46.5132 74.54 44.6736C74.54 42.9283 74.2119 41.1201 73.1437 39.6435C72.5755 38.858 71.8182 38.2285 70.942 37.8136C70.0657 37.3987 69.0989 37.2116 68.1311 37.2699C65.9774 37.4618 64.246 39.0536 63.5095 40.8269C62.7729 42.6001 62.8497 44.534 62.9963 46.412C63.087 47.7571 63.4668 49.0668 64.1099 50.2517C62.608 51.2206 61.298 52.4584 60.2457 53.903C59.0204 55.4842 59.0693 55.5576 58.2979 57.4181C57.9209 58.3361 57.5439 59.2821 57.2192 60.3223C60.083 62.938 63.7542 64.4971 67.625 64.7416Z" fill="white"/>
<path d="M94.245 142.992C96.6536 143.149 99.0694 142.829 101.354 142.05C103.639 141.272 105.747 140.05 107.558 138.454C107.105 136.729 106.544 135.034 105.879 133.379C104.799 130.717 102.788 128.539 100.221 127.249C100.238 127.218 100.263 127.19 100.284 127.159C101.369 125.413 101.701 123.382 101.68 121.406C101.663 119.524 101.331 117.566 100.179 115.999C99.5679 115.152 98.7527 114.474 97.8093 114.027C96.8659 113.579 95.8248 113.378 94.7826 113.44C92.4682 113.65 90.5937 115.36 89.8153 117.28C89.0369 119.2 89.1172 121.27 89.2603 123.284C89.3597 124.733 89.7679 126.145 90.4576 127.424C88.8427 128.466 87.4344 129.797 86.3037 131.351C84.9842 133.051 85.0401 133.128 84.2093 135.131C83.8009 136.116 83.3959 137.135 83.0469 138.255C86.1318 141.063 90.082 142.734 94.245 142.992Z" fill="white"/>
<path d="M290.083 83.881C292.162 84.0167 294.247 83.7409 296.218 83.0695C298.19 82.398 300.01 81.344 301.574 79.9679C301.182 78.4787 300.697 77.0156 300.122 75.5871C299.188 73.2896 297.451 71.4093 295.235 70.2952C295.235 70.2708 295.274 70.2464 295.288 70.2184C296.227 68.7105 296.509 66.9616 296.495 65.2547C296.495 63.628 296.192 61.956 295.2 60.5876C294.673 59.8571 293.97 59.2715 293.156 58.8853C292.341 58.499 291.443 58.3245 290.544 58.378C288.547 58.5596 286.941 60.0361 286.257 61.6837C285.573 63.3313 285.643 65.122 285.779 66.8639C285.87 68.1152 286.227 69.3326 286.826 70.4349C285.432 71.3353 284.216 72.4842 283.238 73.8243C282.103 75.2904 282.149 75.3602 281.433 77.0881C281.084 77.9363 280.735 78.816 280.431 79.7829C283.089 82.2072 286.493 83.6528 290.083 83.881Z" fill="white"/>
<path d="M143.436 96.999C146.34 97.1886 149.254 96.8031 152.009 95.8644C154.765 94.9258 157.308 93.4525 159.493 91.5291C158.946 89.4465 158.269 87.4003 157.465 85.403C156.16 82.1906 153.734 79.561 150.637 78.0027C150.66 77.9653 150.686 77.9291 150.714 77.8945C152.023 75.8001 152.421 73.3357 152.4 70.948C152.4 68.6756 151.974 66.3368 150.588 64.4205C149.202 62.5041 146.678 61.1008 144.078 61.3347C141.285 61.5895 139.037 63.6525 138.081 65.9529C137.124 68.2532 137.236 70.77 137.425 73.2135C137.545 74.9625 138.038 76.6656 138.87 78.2087C137.034 79.3187 135.407 80.9454 133.854 82.949C132.3 84.9527 132.332 85.0958 131.33 87.5148C130.838 88.7017 130.352 89.9304 129.934 91.2848C133.653 94.6702 138.416 96.6859 143.436 96.999Z" fill="white"/>
<path d="M213.665 53.6029C215.329 53.7103 216.997 53.488 218.575 52.9489C220.153 52.4098 221.609 51.5644 222.859 50.4612C222.546 49.2745 222.159 48.1086 221.7 46.9706C220.955 45.1321 219.567 43.6273 217.794 42.7363C217.807 42.7146 217.821 42.6936 217.836 42.6735C218.529 41.4679 218.864 40.0902 218.803 38.7011C218.803 37.3991 218.559 36.0622 217.756 34.9661C217.339 34.3474 216.759 33.8561 216.08 33.5465C215.401 33.2369 214.65 33.121 213.909 33.2117C213.169 33.3024 212.468 33.5961 211.884 34.0603C211.3 34.5245 210.855 35.1412 210.6 35.8422C210.052 37.1582 210.108 38.5964 210.216 39.9892C210.285 40.9902 210.567 41.9649 211.043 42.8481C209.928 43.5663 208.955 44.4847 208.174 45.5568C207.263 46.7332 207.301 46.7855 206.729 48.1713C206.446 48.8485 206.167 49.5676 205.926 50.3286C208.057 52.2702 210.787 53.4254 213.665 53.6029Z" fill="white"/>
<path d="M216.489 152.134C221.189 152.443 225.903 151.821 230.361 150.303C234.819 148.786 238.935 146.403 242.47 143.292C241.585 139.925 240.489 136.616 239.189 133.386C237.082 128.192 233.16 123.94 228.151 121.423C228.19 121.364 228.239 121.308 228.274 121.249C230.392 117.838 231.038 113.88 231.007 110.019C230.975 106.347 230.309 102.567 228.075 99.4669C225.841 96.3671 221.753 94.0982 217.55 94.4787C213.033 94.8871 209.399 98.2242 207.857 101.945C206.314 105.666 206.46 109.726 206.775 113.66C206.966 116.487 207.763 119.241 209.11 121.734C206.139 123.528 203.525 126.157 201.001 129.413C198.432 132.726 198.537 132.883 196.92 136.789C196.124 138.713 195.336 140.699 194.651 142.884C200.665 148.364 208.369 151.627 216.489 152.134Z" fill="white"/>
<defs>
<linearGradient id="paint0_linear_405_14252" x1="261.121" y1="5.32435" x2="-62.4525" y2="139.71" gradientUnits="userSpaceOnUse">
<stop stop-color="#E3E7F6"/>
<stop offset="1" stop-color="#E3E7F6" stop-opacity="0"/>
</linearGradient>
</defs>
</svg>

<svg width="309" height="130" fill="none" xmlns="http://www.w3.org/2000/svg"><path d="M151.5 243c65.998 0 119.5-54.397 119.5-121.5C271 54.397 217.498 0 151.5 0 85.502 0 32 54.397 32 121.5 32 188.603 85.502 243 151.5 243z" fill="url(#a)"/><path d="m141.219 77.983-44.096 52.608.936.785 44.097-52.608-.937-.785zM16.599 107.14l-.368 1.165 81.033 25.565.368-1.165-81.034-25.565z" fill="#120283"/><path d="M17.61 122.275c8.013-.656 13.977-7.683 13.32-15.696-.655-8.012-7.682-13.975-15.694-13.32-8.013.656-13.976 7.683-13.32 15.696.656 8.012 7.683 13.976 15.695 13.32z" fill="#353A85"/><path d="m66.992 47.277-1.142.434 31.254 82.319 1.142-.434-31.254-82.32zM68.12 47.033l-.47 1.128 73.805 30.767.47-1.127L68.12 47.033z" fill="#120283"/><path d="m214.132 41.172-74.26 36.556.539 1.097 74.261-36.557-.54-1.096z" fill="#120283"/><path d="m142.01 77.847-.639 1.04 78.066 47.99.64-1.041-78.067-47.99z" fill="#120283"/><path d="m290.618 68.658-71.243 57.24.765.953 71.243-57.24-.765-.953z" fill="#120283"/><path d="M150.996 99.77c13.81-3.47 22.191-17.48 18.719-31.29-3.471-13.809-17.48-22.19-31.289-18.718-13.81 3.471-22.191 17.48-18.719 31.29 3.471 13.809 17.48 22.19 31.289 18.718zM292.217 87.106c9.971-.674 17.507-9.304 16.833-19.276-.675-9.97-9.305-17.507-19.276-16.833-9.971.675-17.507 9.305-16.833 19.276.675 9.971 9.305 17.508 19.276 16.833z" fill="#353A85"/><path d="M87.773 49.926c1.09-10.72-6.715-20.294-17.434-21.385-10.72-1.09-20.294 6.715-21.385 17.435-1.09 10.72 6.715 20.293 17.435 21.384 10.72 1.09 20.293-6.715 21.384-17.434z" fill="#120283"/><path d="M226.51 49.338c4.206-6.685 2.197-15.515-4.488-19.721-6.685-4.207-15.514-2.198-19.721 4.487-4.206 6.685-2.197 15.515 4.488 19.721 6.685 4.207 15.514 2.198 19.721-4.487z" fill="#BF0830"/><path d="M245.693 144.681c14.984-14.985 14.984-39.279 0-54.263-14.984-14.985-39.278-14.985-54.263 0-14.984 14.984-14.984 39.278 0 54.263 14.985 14.984 39.279 14.984 54.263 0z" fill="#120283"/><path d="M98.112 145.212c11.873-1.529 20.259-12.395 18.73-24.268-1.53-11.874-12.395-20.26-24.27-18.731-11.873 1.53-20.259 12.396-18.73 24.269 1.53 11.874 12.396 20.26 24.27 18.73z" fill="#BF0830"/><path d="M15.666 120.631a12.91 12.91 0 0 0 9.366-3.19 30.054 30.054 0 0 0-1.184-3.568 8.327 8.327 0 0 0-3.98-4.314l.046-.063a7.492 7.492 0 0 0 .984-4.049c0-1.323-.25-2.688-1.047-3.802a4.125 4.125 0 0 0-3.923-1.8 4.12 4.12 0 0 0-3.376 2.69c-.558 1.344-.499 2.793-.39 4.224a7.21 7.21 0 0 0 .84 2.911 11.025 11.025 0 0 0-2.921 2.765c-.929 1.194-.89 1.25-1.473 2.66-.286.698-.57 1.396-.817 2.195a12.89 12.89 0 0 0 7.875 3.341zM67.625 64.742a17.043 17.043 0 0 0 12.378-4.214c-.42-1.604-.94-3.18-1.56-4.72a11.006 11.006 0 0 0-5.26-5.7c0-.03.041-.055.058-.083 1.01-1.627 1.317-3.512 1.299-5.351 0-1.746-.328-3.554-1.396-5.03a5.76 5.76 0 0 0-5.013-2.374c-2.154.192-3.885 1.784-4.621 3.557-.737 1.773-.66 3.707-.514 5.585a9.371 9.371 0 0 0 1.114 3.84 14.516 14.516 0 0 0-3.864 3.651c-1.226 1.581-1.177 1.655-1.948 3.515-.377.918-.754 1.864-1.079 2.904a17.02 17.02 0 0 0 10.406 4.42zM94.245 142.992a18.332 18.332 0 0 0 13.313-4.538 42.705 42.705 0 0 0-1.679-5.075 11.844 11.844 0 0 0-5.658-6.13c.017-.031.042-.059.063-.09 1.085-1.746 1.417-3.777 1.396-5.753-.017-1.882-.349-3.84-1.501-5.407a6.197 6.197 0 0 0-5.396-2.559c-2.315.21-4.19 1.92-4.968 3.84-.778 1.92-.698 3.99-.555 6.004.1 1.449.508 2.861 1.198 4.14a15.589 15.589 0 0 0-4.154 3.927c-1.32 1.7-1.264 1.777-2.095 3.78-.408.985-.813 2.004-1.162 3.124a18.319 18.319 0 0 0 11.198 4.737zM290.083 83.881a15.83 15.83 0 0 0 11.491-3.913 36.86 36.86 0 0 0-1.452-4.38 10.24 10.24 0 0 0-4.887-5.293c0-.024.039-.049.053-.077.939-1.508 1.221-3.256 1.207-4.963 0-1.627-.303-3.299-1.295-4.667a5.346 5.346 0 0 0-4.656-2.21c-1.997.182-3.603 1.658-4.287 3.306-.684 1.647-.614 3.438-.478 5.18a8.819 8.819 0 0 0 1.047 3.57 13.53 13.53 0 0 0-3.588 3.39c-1.135 1.466-1.089 1.536-1.805 3.264a32.974 32.974 0 0 0-1.002 2.695 15.81 15.81 0 0 0 9.652 4.098zM143.436 96.999a22.117 22.117 0 0 0 16.057-5.47 51.311 51.311 0 0 0-2.028-6.126 14.315 14.315 0 0 0-6.828-7.4c.023-.038.049-.074.077-.109 1.309-2.094 1.707-4.558 1.686-6.946 0-2.272-.426-4.611-1.812-6.527-1.386-1.917-3.91-3.32-6.51-3.086-2.793.255-5.041 2.318-5.997 4.618-.957 2.3-.845 4.817-.656 7.26a12.3 12.3 0 0 0 1.445 4.996c-1.836 1.11-3.463 2.736-5.016 4.74-1.554 2.004-1.522 2.147-2.524 4.566-.492 1.187-.978 2.415-1.396 3.77a22.101 22.101 0 0 0 13.502 5.714zM213.665 53.603a12.662 12.662 0 0 0 9.194-3.142 29.327 29.327 0 0 0-1.159-3.49 8.175 8.175 0 0 0-3.906-4.235.746.746 0 0 1 .042-.063 7.325 7.325 0 0 0 .967-3.972c0-1.302-.244-2.639-1.047-3.735a4.045 4.045 0 0 0-7.156.876c-.548 1.316-.492 2.754-.384 4.147a7.048 7.048 0 0 0 .827 2.86 10.755 10.755 0 0 0-2.869 2.708c-.911 1.176-.873 1.228-1.445 2.614a25.75 25.75 0 0 0-.803 2.158 12.646 12.646 0 0 0 7.739 3.274zM216.489 152.134a35.776 35.776 0 0 0 25.981-8.842 83.138 83.138 0 0 0-3.281-9.906 23.11 23.11 0 0 0-11.038-11.963c.039-.059.088-.115.123-.174 2.118-3.411 2.764-7.369 2.733-11.23-.032-3.672-.698-7.452-2.932-10.552-2.234-3.1-6.322-5.369-10.525-4.988-4.517.408-8.151 3.745-9.693 7.466-1.543 3.721-1.397 7.781-1.082 11.715a19.795 19.795 0 0 0 2.335 8.074c-2.971 1.794-5.585 4.423-8.109 7.679-2.569 3.313-2.464 3.47-4.081 7.376-.796 1.924-1.584 3.91-2.269 6.095a35.729 35.729 0 0 0 21.838 9.25z" fill="#fff"/><defs><linearGradient id="a" x1="261.121" y1="5.324" x2="-62.453" y2="139.71" gradientUnits="userSpaceOnUse"><stop stop-color="#E3E7F6"/><stop offset="1" stop-color="#E3E7F6" stop-opacity="0"/></linearGradient></defs></svg>
